app/contents/assets/images/icons/import.svg

<?xml version="1.0" encoding="UTF-8" standalone="no"?>
<!-- Generator: Adobe Illustrator 16.0.4, SVG Export Plug-In . SVG Version: 6.00 Build 0)  -->

<svg
   xmlns:dc="http://purl.org/dc/elements/1.1/"
   xmlns:cc="http://creativecommons.org/ns#"
   xmlns:rdf="http://www.w3.org/1999/02/22-rdf-syntax-ns#"
   xmlns:svg="http://www.w3.org/2000/svg"
   xmlns="http://www.w3.org/2000/svg"
   xmlns:xlink="http://www.w3.org/1999/xlink"
   xmlns:sodipodi="http://sodipodi.sourceforge.net/DTD/sodipodi-0.dtd"
   xmlns:inkscape="http://www.inkscape.org/namespaces/inkscape"
   version="1.1"
   x="0px"
   y="0px"
   width="48px"
   height="48px"
   viewBox="0 0 48 48"
   enable-background="new 0 0 48 48"
   xml:space="preserve"
   id="svg2"
   inkscape:version="0.91 r13725"
   sodipodi:docname="import.svg"><metadata
     id="metadata130"><rdf:RDF><cc:Work
         rdf:about=""><dc:format>image/svg+xml</dc:format><dc:type
           rdf:resource="http://purl.org/dc/dcmitype/StillImage" /><dc:title></dc:title></cc:Work></rdf:RDF></metadata><defs
     id="defs128" /><sodipodi:namedview
     pagecolor="#ffffff"
     bordercolor="#666666"
     borderopacity="1"
     objecttolerance="10"
     gridtolerance="10"
     guidetolerance="10"
     inkscape:pageopacity="0"
     inkscape:pageshadow="2"
     inkscape:window-width="1877"
     inkscape:window-height="1179"
     id="namedview126"
     showgrid="false"
     showguides="false"
     inkscape:zoom="19.666667"
     inkscape:cx="18.204668"
     inkscape:cy="28.478616"
     inkscape:window-x="1963"
     inkscape:window-y="21"
     inkscape:window-maximized="1"
     inkscape:current-layer="svg2"><inkscape:grid
       type="xygrid"
       id="grid4260" /></sodipodi:namedview><g
     id="Label" /><g
     id="Icon"><g
       id="g6"><path
         style="fill-opacity:1"
         d="M 40.095703 13.783203 L 40.095703 15.923828 L 45.835938 15.923828 L 40.095703 13.783203 z M 7.9042969 13.796875 L 2.171875 15.923828 L 7.9042969 15.923828 L 7.9042969 13.796875 z "
         id="polygon8" /><g
         id="g10"><g
           id="g12"><path
             style="fill-opacity:1;stroke:none;stroke-width:0.69999999;stroke-miterlimit:4;stroke-dasharray:none;stroke-opacity:1"
             d="m 11.171875,0 c -1.417,0 -2.5683594,1.1475 -2.5683594,2.5625 l 0,13.361328 30.7910154,0 0,-5.675781 L 29.132812,0 Z M 27.532,2.3 l 9.764,9.548 -9.775,0 z"
             id="path14"
             inkscape:connector-curvature="0"
             sodipodi:nodetypes="ssccccscccc" /><g
             id="g16"><g
               id="g18"><g
                 id="g20"><defs
                   id="defs22"><path
                     id="SVGID_201_"
                     d="M29.133,0H11.171C9.754,0,8.604,1.147,8.604,2.562V38.43c0,1.415,1.149,2.562,2.566,2.562H36.83          c1.418,0,2.565-1.147,2.565-2.562V10.248L29.133,0z" /></defs><clipPath
                   id="SVGID_2_"><use
                     xlink:href="#SVGID_201_"
                     overflow="visible"
                     id="use26" /></clipPath><g
                   clip-path="url(#SVGID_2_)"
                   id="g28"><g
                     id="g30"><linearGradient
                       id="SVGID_3_"
                       gradientUnits="userSpaceOnUse"
                       x1="34.6396"
                       y1="10.2695"
                       x2="34.6396"
                       y2="18.9084"><stop
                         offset="0"
                         style="stop-color:#3E2723;stop-opacity:0.2"
                         id="stop33" /><stop
                         offset="1"
                         style="stop-color:#3E2723;stop-opacity:0.02"
                         id="stop35" /></linearGradient></g><g
                     id="g39"><g
                       id="g41" /></g><g
                     id="g47" /><g
                     id="g51" /></g></g><g
                 id="g55"><g
                   id="g59" /></g></g><radialGradient
               id="SVGID_4_"
               cx="9717.1904"
               cy="-2224.4199"
               r="154.4055"
               gradientTransform="matrix(0.32 0 0 0.3195 -3100.1204 711.3649)"
               gradientUnits="userSpaceOnUse"><stop
                 offset="0.33"
                 style="stop-color:#FFFFFF"
                 id="stop64" /><stop
                 offset="1"
                 style="stop-color:#FFFFFF;stop-opacity:0"
                 id="stop66" /></radialGradient></g></g><rect
           x="3.473"
           width="41.055"
           height="40.991"
           id="rect70"
           fill="none" /></g><g
         id="g72"><g
           id="g74"><g
             id="g76"><g
               id="g78"><path
                 style="fill-opacity:1;stroke:none;stroke-width:0.69999999;stroke-miterlimit:4;stroke-dasharray:none;stroke-opacity:1"
                 d="M 0.24609375 16.623047 L 0.24609375 45.035156 C 0.24609375 46.672156 1.5748438 48 3.2148438 48 L 44.783203 48 C 46.423203 48 47.753906 46.672156 47.753906 45.035156 L 47.753906 16.623047 L 0.24609375 16.623047 z M 18.0625 22.552734 L 29.939453 22.552734 C 31.032453 22.552734 31.917969 23.438297 31.917969 24.529297 C 31.917969 25.621297 31.0305 26.505859 29.9375 26.505859 L 18.0625 26.505859 C 16.9695 26.505859 16.082031 25.621297 16.082031 24.529297 C 16.082031 23.438297 16.9705 22.552734 18.0625 22.552734 z M 20.634766 30.080078 L 20.634766 34.148438 L 32.271484 34.148438 L 32.271484 38.0625 L 20.634766 38.0625 L 20.634766 42.130859 L 14.599609 36.105469 L 20.634766 30.080078 z "
                 id="path80" /></g><g
               id="g82"
               opacity="0.5" /><g
               id="g86" /></g><g
             id="g90"><g
               id="g92"
               opacity="0.04" /></g><g
             id="g96"><g
               id="g100"><g
                 id="g102"
                 opacity="0.16" /></g></g></g><radialGradient
           id="SVGID_6_"
           cx="9688.9014"
           cy="-2174.6309"
           r="174.8789"
           gradientTransform="matrix(0.32 0 0 0.3195 -3100.1204 711.3649)"
           gradientUnits="userSpaceOnUse"><stop
             offset="0.32"
             style="stop-color:#FFFFFF"
             id="stop107" /><stop
             offset="1"
             style="stop-color:#FFFFFF;stop-opacity:0"
             id="stop109" /></radialGradient></g><g
         id="g113"><linearGradient
           id="SVGID_7_"
           gradientUnits="userSpaceOnUse"
           x1="30.2803"
           y1="43.4604"
           x2="45.3377"
           y2="58.5179"><stop
             offset="0"
             style="stop-color:#263238;stop-opacity:0.16"
             id="stop116" /><stop
             offset="1"
             style="stop-color:#263238;stop-opacity:0"
             id="stop118" /></linearGradient></g><rect
         width="48"
         height="48"
         id="rect124"
         fill="none" /></g></g></svg>

<?xml version="1.0" encoding="UTF-8" standalone="no"?>
<svg id="svg2" xmlns:rdf="http://www.w3.org/1999/02/22-rdf-syntax-ns#" xmlns="http://www.w3.org/2000/svg" enable-background="new 0 0 48 48" xml:space="preserve" height="48px" width="48px" version="1.1" y="0px" x="0px" xmlns:cc="http://creativecommons.org/ns#" xmlns:xlink="http://www.w3.org/1999/xlink" viewBox="0 0 48 48" xmlns:dc="http://purl.org/dc/elements/1.1/"><defs><path id="SVGID_201_" d="m29.133 0h-17.962c-1.417 0-2.567 1.147-2.567 2.562v35.868c0 1.415 1.149 2.562 2.566 2.562h25.66c1.418 0 2.565-1.147 2.565-2.562v-28.182l-10.262-10.248z"/></defs><g id="Icon"><g id="g6"><path id="polygon8" d="m40.096 13.783v2.141h5.74l-5.74-2.141zm-32.192 0.014l-5.7324 2.127h5.7324v-2.127z"/><g id="g10"><g id="g12"><path id="path14" d="m11.172 0c-1.417 0-2.5684 1.1475-2.5684 2.5625v13.361h30.791v-5.6758l-10.262-10.248zm16.36 2.3l9.764 9.548h-9.775z"/><g id="g16"><g id="g18"><g id="g20"><clipPath id="SVGID_2_"><use id="use26" overflow="visible" xlink:href="#SVGID_201_"/></clipPath><g id="g28" clip-path="url(#SVGID_2_)"><g id="g39"/></g></g><g id="g55"/></g></g></g><rect id="rect70" x="3.473" height="40.991" fill="none" width="41.055"/></g><g id="g72"><g id="g74"><g id="g76"><g id="g78"><path id="path80" d="m0.24609 16.623v28.412c0 1.637 1.3287 2.965 2.9687 2.965h41.568c1.64 0 2.971-1.328 2.971-2.965v-28.412h-47.508zm17.816 5.93h11.877c1.093 0 1.979 0.885 1.979 1.976 0 1.092-0.888 1.977-1.98 1.977h-11.876c-1.092 0-1.98-0.885-1.98-1.977 0-1.091 0.888-1.976 1.98-1.976zm2.573 7.527v4.068h11.636v3.914h-11.636v4.069l-6.035-6.026 6.035-6.025z"/></g></g><g id="g90"/><g id="g96"><g id="g100"/></g></g></g><rect id="rect124" width="48" fill="none" height="48"/></g></g></svg>
